X:1
T:The Sun is Burning
M:4/4
L:1/4
K:G
 D/2 D E| G4-| G D E G| D4| z2 G A| B3/2 G/2
M:4/4
| c B A G| A4| z2 B c| d3 B| c B A3/2 G/2| G B| A F| G3/2 F/2 D B,|\
 C4| z2 D E| G4-| G D| E G| D4|

